X: 41055
T: Trip To Mullagh, The
R: reel
M: 4/4
K: Ddorian
|:dfec d2de|fedc AGG2|dfed c2cd|ecgc acgc|
dfec d2de|fedc AGGE|FAdA EAce|1 fage fddc:|2 fage fdd2||
|:agef gfec|defd edfd|ageg ac'bg|a2ag ageg|
agef gfec|dfec dcAG|FAdA EAce|1 fage fdd2:|2 fage fddc||

